!!! OTL: Berkowitz574
!!! Chapter: 1
!!! Section: V
!!! Page: 155
!!! Mode: 
!!! Encoder: CD
**kern
*staff1
=1-
*clefF4
*k[]
*C:
*M5/8
8A-\L
8E-\
8F\J
4BB-/
=2
8E-\L
8D-\
8G-\J
4c-\
=3
4B-\
8B-\
8A\L
8B-\J
=4
8F\L
8F#\
8G#\J
8F#\L
8E\J
=5
4BB/
8E\
4E-\
=6
4A-\
8A-\
8An\L
8G\J
=7
!!linebreak:original
4c\
8c\
8B\L
8E\J
=8
8A\L
8G\
8A\J
8D/L
8C/J
=9
4F\
8E-\
8B-\L
8A\J
=10
4d\
8d\
8G\L
8G\J
=11
8c\L
8B-\
8c\J
8F\
8r
=12
8C\L
8G\
8A-\J
8D-\L
8G-\J
=13
8F/L
8C/
8BB/J
8E\
8r
==
*-
